X:1
T:Two Brothers
M:4/4
L:1/4
K:F
 D- F G A| G A c2| d- cA/2-G/2 F| G E C2| D- E G A| G A c- e-| e4|\
 d c A F| G E D2-| D2 z2| z4| d d e c| d d =B2| c c =B e| d c =B3/2 G/2|\
 A F F A| =B G G2| c =B/2A/2 B/2A/2 G| A2 A2|
